public/img/facebookIcon.svg

<svg width="38" height="38" viewBox="0 0 38 38" fill="none" xmlns="http://www.w3.org/2000/svg">
<g id="Social Media / Small / Dark / Facebook">
<path id="Oval" d="M19.0576 37.1299C29.1368 37.1299 37.3076 28.9591 37.3076 18.8799C37.3076 8.80069 29.1368 0.629883 19.0576 0.629883C8.97842 0.629883 0.807617 8.80069 0.807617 18.8799C0.807617 28.9591 8.97842 37.1299 19.0576 37.1299Z" fill="#015F26"/>
<path id="Shape" d="M23.6453 19.5939H20.3888V31.5241H15.455V19.5939H13.1084V15.4011H15.455V12.6879C15.455 10.7477 16.3766 7.70947 20.4327 7.70947L24.0874 7.72476V11.7946H21.4357C21.0007 11.7946 20.3891 12.0119 20.3891 12.9374V15.405H24.0764L23.6453 19.5939Z" fill="#F0EFEA"/>
</g>
</svg>

<svg width="38" height="38" fill="none" xmlns="http://www.w3.org/2000/svg"><path d="M19.058 37.13c10.079 0 18.25-8.17 18.25-18.25S29.137.63 19.058.63C8.978.63.808 8.8.808 18.88s8.17 18.25 18.25 18.25Z" fill="#015F26"/><path d="M23.645 19.594H20.39v11.93h-4.934v-11.93h-2.347V15.4h2.347v-2.713c0-1.94.922-4.979 4.978-4.979l3.654.016v4.07h-2.651c-.435 0-1.047.217-1.047 1.142v2.468h3.687l-.43 4.189Z" fill="#F0EFEA"/></svg>
